svgs/sharp-light/chart-candlestick.svg

<svg xmlns="http://www.w3.org/2000/svg" viewBox="0 0 512 512"><!--! Font Awesome Pro 6.6.0 by @fontawesome - https://fontawesome.com License - https://fontawesome.com/license (Commercial License) Copyright 2024 Fonticons, Inc. --><path d="M32 48l0-16L0 32 0 48 0 464l0 16 16 0 480 0 16 0 0-32-16 0L32 448 32 48zm288 0l0-16-32 0 0 16 0 48-32 0 0 32 0 96 0 32 32 0 0 48 0 16 32 0 0-16 0-48 32 0 0-32 0-96 0-32-32 0 0-48zM192 64l-32 0 0 16 0 48-32 0 0 32 0 128 0 32 32 0 0 48 0 16 32 0 0-16 0-48 32 0 0-32 0-128 0-32-32 0 0-48 0-16zm128 64l0 96-32 0 0-96 32 0zm128 96l0 64-32 0 0-64 32 0zm-32-32l-32 0 0 32 0 64 0 32 32 0 0 48 0 16 32 0 0-16 0-48 32 0 0-32 0-64 0-32-32 0 0-48 0-16-32 0 0 16 0 48zM160 160l32 0 0 128-32 0 0-128z"/></svg>

<svg xmlns="http://www.w3.org/2000/svg" viewBox="0 0 512 512"><!--! Font Awesome Pro 6.4.0 by @fontawesome - https://fontawesome.com License - https://fontawesome.com/license (Commercial License) Copyright 2023 Fonticons, Inc. --><path d="M32 48V32H0V48 464v16H16 496h16V448H496 32V48zm288 0V32H288V48 96H256v32 96 32h32v48 16h32V304 256h32V224 128 96H320V48zM192 64H160V80v48H128v32V288v32h32v48 16h32V368 320h32V288 160 128H192V80 64zm128 64v96H288V128h32zm128 96v64H416V224h32zm-32-32H384v32 64 32h32v48 16h32V368 320h32V288 224 192H448V144 128H416v16 48zM160 160h32V288H160V160z"/></svg>
